X: 42537
T: Whelan's
R: jig
M: 6/8
K: Bdorian
|:~B3 fec|cBf ecA|~B3 fec|aec cBA|
ABB fec|cBf ece|~f3 fec|1 Ace edc:|2 ABc dcA||
|:FEF ~B3|cBA ABA|FEF d2B|cAF ~E3|
~F3 B^AB|cBA B2 c|dfd cec|BAF ~E3:|

